X: 3
T: Ring Out Wild Bells   [Bm]
C: Crawford Gates
Z: DW
M: 6/8
L: 1/8
K: Bm
B |\
"Bm"Bcd f2f | "Em"gfe "Bm"f2f |\
"Em"efg "Bm"fd>d | "F#"edc "Bm"d2 ||\
d |\
"G"b2b "D"ad2 | "Em"g2g "F#"f2f |
"Em"c>de "Bm"dB>B | "F#"cB^A "Bm"B2 ||\
d |\
"G"b2b "D"a2d | "Em"g2g "F#"f2f |\
"Em"c>de "Bm"dB>B | "F#"cB^A "Bm"B2 |]

%%sep 1 1 500

